public/img/Vector58.svg

<svg fill="none" height="335" viewBox="0 0 729 335" width="729" xmlns="http://www.w3.org/2000/svg"><path d="m653.253 43.4744c-96.776-25.8436-194.327-35.27498-294.03-36.41648-89.314-1.02255-211.288-20.05592-291.4767 34.16858-40.4029 27.3207-73.75983 96.9445-62.55049 147.9135 7.60829 34.596 27.23569 63.646 56.80609 80.926 71.6921 41.894 166.4451 49.686 246.3721 56.648 88.523 7.71 186.404 10.811 271.903-18.209 35.718-12.123 69.593-30.677 100.634-52.826 14.07-10.039 36.033-24.777 42.552-42.935 12.56-34.986-24.452-84.355-46.594-105.878-32.048-31.1518-69.497-46.2986-111.697-51.2528" stroke="#30e1b9" stroke-linecap="round" stroke-linejoin="round" stroke-width="6"/></svg>

<svg width="729" height="335" viewBox="0 0 729 335" fill="none" xmlns="http://www.w3.org/2000/svg">
<path d="M653.253 43.4744C556.477 17.6308 458.926 8.19942 359.223 7.05792C269.909 6.03537 147.935 -12.998 67.7463 41.2265C27.3434 68.5472 -6.01353 138.171 5.19581 189.14C12.8041 223.736 32.4315 252.786 62.0019 270.066C133.694 311.96 228.447 319.752 308.374 326.714C396.897 334.424 494.778 337.525 580.277 308.505C615.995 296.382 649.87 277.828 680.911 255.679C694.981 245.64 716.944 230.902 723.463 212.744C736.023 177.758 699.011 128.389 676.869 106.866C644.821 75.7142 607.372 60.5674 565.172 55.6132" stroke="#30E1B9" stroke-width="6" stroke-linecap="round" stroke-linejoin="round"/>
</svg>
